X:1
T:Redemptor Mundi
T:Redemptor Mundi
T:Public  domain
Z:Public  domain
%%score ( 1 2 ) ( 3 4 )
L:1/8
M:none
K:D
V:1 treble nm="Unnamed-000"
V:2 treble 
V:3 bass nm="Redemptor Mundi"
V:4 bass 
V:1
 (F2 | E2 D2 [GG]3 z | d2 [Gc]2 B2 x2 | [FA]6 A2 | ^G2 A2 B2 c2 | d2 B2 A2 ^G2 | A6) c2 | %7
 d2 B2 [cA]3 z | d2 F2 G2 A2 | B6 A2 | B2 c2 d2 e2 | A2 F2 E2 G2 | [DF]8 |] %13
V:2
 D2 | x C2 [EE]3 x2 | F2 A2 x2 G2 | x6 E2 | E2 E2 E2 E2 | D2 F2 E2 E2 | E6 E2 | x E2 E2 [EC]3 | %8
 D2 D2 D2 D2 | D6 D2 | D2 G2 F2 G2 | F2 D2 D2 C2 | x8 |] %13
V:3
 (A,2 | G,2 F,2 A,3 A, | A,3 C C2 D2 | D6 [CE]2 | D2 C2 B,2 x2 | A,2 D2 C2 B,2 | [A,,C]6) A,2 | %7
 B,2 ^G,2 A, x3 | A,2 =C2 B,2 A,2 | G,6 [F,A,]2 | G,2 G,2 B,2 A,2 | A,2 A,2 [G,B,]2 A,2 | %12
 [D,A,]8 |] %13
V:4
 D,2 | D,2 D,2 C,3 C, | D,2 F,-F, G,2 B,2 | x8 | B,2 A,2 ^G,2 A,2 | F,2 D,2 E,2 E,2 | x8 | %7
 ^G,2 E,2 A,3 =G, | F,2 A,2 G,2 F,2 | x8 | E,2 B,,2 C,2 x2 | D,2 F,2 x4 | x8 |] %13

